src/svg/cog.svg

<?xml version="1.0" encoding="utf-8"?>
<!-- Generator: Adobe Illustrator 16.0.0, SVG Export Plug-In . SVG Version: 6.00 Build 0)  -->
<!DOCTYPE svg PUBLIC "-//W3C//DTD SVG 1.1//EN" "http://www.w3.org/Graphics/SVG/1.1/DTD/svg11.dtd">
<svg version="1.1" id="Filled_Icons" xmlns="http://www.w3.org/2000/svg" xmlns:xlink="http://www.w3.org/1999/xlink" x="0px"
	 y="0px" width="24px" height="24px" viewBox="0 0 24 24" enable-background="new 0 0 24 24" xml:space="preserve">
<path d="M23.5,10h-2.855c-0.2-0.79-0.454-1.667-0.778-2.332l2.032-2.032c0.094-0.094,0.146-0.221,0.146-0.353
	c0-0.133-0.053-0.26-0.146-0.354L19.07,2.102c-0.195-0.196-0.512-0.196-0.707,0l-2.033,2.031C15.666,3.809,14.789,3.555,14,3.356
	V0.5C14,0.224,13.776,0,13.5,0h-3C10.224,0,10,0.224,10,0.5v2.856C9.21,3.555,8.333,3.809,7.669,4.133L5.636,2.102
	c-0.195-0.196-0.512-0.196-0.707,0L2.1,4.929c-0.195,0.195-0.195,0.512,0,0.707l2.033,2.033C3.811,8.332,3.555,9.209,3.354,10H0.5
	C0.224,10,0,10.224,0,10.5v3C0,13.776,0.224,14,0.5,14h2.854c0.201,0.791,0.456,1.668,0.779,2.332L2.1,18.365
	c-0.094,0.093-0.146,0.22-0.146,0.353s0.053,0.26,0.146,0.354l2.829,2.828c0.188,0.188,0.52,0.188,0.707,0l2.033-2.033
	C8.332,20.19,9.209,20.444,10,20.646V23.5c0,0.276,0.224,0.5,0.5,0.5h3c0.276,0,0.5-0.224,0.5-0.5v-2.854
	c0.791-0.201,1.668-0.456,2.331-0.778l2.034,2.032c0.195,0.195,0.512,0.195,0.707,0l2.828-2.828c0.195-0.195,0.195-0.512,0-0.707
	l-2.032-2.033c0.323-0.664,0.578-1.541,0.778-2.332H23.5c0.276,0,0.5-0.224,0.5-0.5v-3C24,10.224,23.776,10,23.5,10z M12,16
	c-2.206,0-4-1.795-4-4s1.794-4,4-4s4,1.795,4,4S14.206,16,12,16z"/>
</svg>

<?xml version="1.0" encoding="UTF-8"?>
<svg width="24px" height="24px" viewBox="0 0 24 24" version="1.1" xmlns="http://www.w3.org/2000/svg" xmlns:xlink="http://www.w3.org/1999/xlink">
    <!-- Generator: Sketch 42 (36781) - http://www.bohemiancoding.com/sketch -->
    <title>cog</title>
    <desc>Created with Sketch.</desc>
    <defs></defs>
    <g id="Icons" stroke="none" stroke-width="1">
        <g id="cog">
            <path d="M23.5,10 L20.645,10 C20.445,9.21 20.191,8.333 19.867,7.668 L21.899,5.636 C21.993,5.542 22.045,5.415 22.045,5.283 C22.045,5.15 21.992,5.023 21.899,4.929 L19.07,2.102 C18.875,1.906 18.558,1.906 18.363,2.102 L16.33,4.133 C15.666,3.809 14.789,3.555 14,3.356 L14,0.5 C14,0.224 13.776,0 13.5,0 L10.5,0 C10.224,0 10,0.224 10,0.5 L10,3.356 C9.21,3.555 8.333,3.809 7.669,4.133 L5.636,2.102 C5.441,1.906 5.124,1.906 4.929,2.102 L2.1,4.929 C1.905,5.124 1.905,5.441 2.1,5.636 L4.133,7.669 C3.811,8.332 3.555,9.209 3.354,10 L0.5,10 C0.224,10 0,10.224 0,10.5 L0,13.5 C0,13.776 0.224,14 0.5,14 L3.354,14 C3.555,14.791 3.81,15.668 4.133,16.332 L2.1,18.365 C2.006,18.458 1.954,18.585 1.954,18.718 C1.954,18.851 2.007,18.978 2.1,19.072 L4.929,21.9 C5.117,22.088 5.449,22.088 5.636,21.9 L7.669,19.867 C8.332,20.19 9.209,20.444 10,20.646 L10,23.5 C10,23.776 10.224,24 10.5,24 L13.5,24 C13.776,24 14,23.776 14,23.5 L14,20.646 C14.791,20.445 15.668,20.19 16.331,19.868 L18.365,21.9 C18.56,22.095 18.877,22.095 19.072,21.9 L21.9,19.072 C22.095,18.877 22.095,18.56 21.9,18.365 L19.868,16.332 C20.191,15.668 20.446,14.791 20.646,14 L23.5,14 C23.776,14 24,13.776 24,13.5 L24,10.5 C24,10.224 23.776,10 23.5,10 L23.5,10 Z M12,16 C9.794,16 8,14.205 8,12 C8,9.795 9.794,8 12,8 C14.206,8 16,9.795 16,12 C16,14.205 14.206,16 12,16 L12,16 Z"></path>
        </g>
    </g>
</svg>
